<?xml version="1.0" encoding="UTF-8"?>
<map version="1.10" tiledversion="1.11.2" orientation="orthogonal" renderorder="right-down" width="30" height="20" tilewidth="32" tileheight="32" infinite="0" nextlayerid="5" nextobjectid="1">
 <editorsettings>
  <export target="mainRoom.lua" format="lua"/>
 </editorsettings>
 <tileset firstgid="1" name="spritesheetRoom" tilewidth="32" tileheight="32" tilecount="33" columns="33">
  <image source="../spritesheetRoom.png" width="1056" height="32"/>
  <tile id="7">
   <objectgroup draworder="index" id="2">
    <object id="1" x="26" y="0" width="6" height="32"/>
   </objectgroup>
  </tile>
  <tile id="8">
   <objectgroup draworder="index" id="2">
    <object id="1" x="0" y="0" width="6" height="32"/>
   </objectgroup>
  </tile>
  <tile id="9">
   <objectgroup draworder="index" id="2">
    <object id="1" x="0" y="0" width="32" height="32"/>
   </objectgroup>
  </tile>
  <tile id="10">
   <objectgroup draworder="index" id="2">
    <object id="1" x="0" y="0" width="32" height="32"/>
   </objectgroup>
  </tile>
  <tile id="11">
   <objectgroup draworder="index" id="2">
    <object id="1" x="26" y="26" width="6" height="6"/>
   </objectgroup>
  </tile>
  <tile id="12">
   <objectgroup draworder="index" id="2">
    <object id="1" x="0" y="0" width="6" height="6"/>
   </objectgroup>
  </tile>
  <tile id="13">
   <objectgroup draworder="index" id="2">
    <object id="1" x="26" y="0" width="6" height="6"/>
   </objectgroup>
  </tile>
  <tile id="14">
   <objectgroup draworder="index" id="2">
    <object id="1" x="0" y="0" width="32" height="6"/>
   </objectgroup>
  </tile>
  <tile id="15">
   <objectgroup draworder="index" id="2">
    <object id="1" x="26" y="26" width="6" height="6"/>
   </objectgroup>
  </tile>
  <tile id="16">
   <objectgroup draworder="index" id="2">
    <object id="1" x="0" y="26" width="6" height="6"/>
   </objectgroup>
  </tile>
  <tile id="17">
   <objectgroup draworder="index" id="2">
    <object id="1" x="0" y="26" width="32" height="6"/>
   </objectgroup>
  </tile>
  <tile id="18">
   <objectgroup draworder="index" id="2">
    <object id="1" x="0" y="0" width="32" height="6"/>
   </objectgroup>
  </tile>
  <tile id="19">
   <objectgroup draworder="index" id="2">
    <object id="1" x="0" y="0" width="32" height="32"/>
   </objectgroup>
  </tile>
  <tile id="20">
   <objectgroup draworder="index" id="2">
    <object id="1" x="0" y="0" width="32" height="32"/>
   </objectgroup>
  </tile>
  <tile id="21">
   <objectgroup draworder="index" id="2">
    <object id="1" x="0" y="0" width="32" height="32"/>
   </objectgroup>
  </tile>
  <tile id="23">
   <objectgroup draworder="index" id="2">
    <object id="1" x="0" y="0" width="32" height="32"/>
   </objectgroup>
  </tile>
  <tile id="24">
   <objectgroup draworder="index" id="2">
    <object id="1" x="0" y="0" width="32" height="32"/>
   </objectgroup>
  </tile>
  <tile id="31">
   <objectgroup draworder="index" id="2">
    <object id="1" x="0" y="0" width="32" height="32"/>
   </objectgroup>
  </tile>
 </tileset>
 <tileset firstgid="34" name="roomObjects" tilewidth="32" tileheight="32" tilecount="7" columns="6">
  <image source="../roomObjects.png" width="192" height="32"/>
  <tile id="0">
   <objectgroup draworder="index" id="2">
    <object id="1" x="0" y="0" width="32" height="32"/>
   </objectgroup>
  </tile>
  <tile id="3">
   <objectgroup draworder="index" id="2">
    <object id="1" x="6" y="9" width="26" height="15"/>
   </objectgroup>
  </tile>
  <tile id="4">
   <objectgroup draworder="index" id="2">
    <object id="1" x="0" y="9" width="32" height="15"/>
   </objectgroup>
  </tile>
  <tile id="5">
   <objectgroup draworder="index" id="2">
    <object id="1" x="0" y="9" width="26" height="15"/>
   </objectgroup>
  </tile>
 </tileset>
 <layer id="3" name="background" width="30" height="20">
  <data encoding="csv">
33,33,33,33,33,33,33,33,33,33,33,33,33,33,33,33,33,33,33,33,33,33,33,33,33,33,33,33,33,33,
33,33,33,33,33,33,33,33,33,33,33,33,33,33,33,33,33,33,33,33,33,33,33,33,33,33,33,33,33,33,
33,33,33,33,33,33,33,33,33,33,33,33,33,33,33,33,33,33,33,33,33,33,33,33,33,33,33,33,33,33,
33,33,33,33,33,33,33,33,33,33,33,33,33,33,33,33,33,33,33,33,33,33,33,33,33,33,33,33,33,33,
33,33,33,33,33,33,33,33,33,33,33,33,33,33,33,33,33,33,33,33,33,33,33,33,33,33,33,33,33,33,
33,33,33,33,33,33,33,33,33,33,33,33,33,33,0,33,33,33,33,33,33,33,33,33,33,33,33,33,33,33,
33,33,33,33,33,33,33,33,33,33,33,33,33,33,33,33,33,33,33,33,33,33,33,33,33,33,33,33,33,33,
33,33,33,33,33,33,33,33,33,33,33,33,33,33,33,33,33,33,33,33,33,33,33,33,33,33,33,33,33,33,
33,33,33,33,33,33,33,33,33,33,33,33,33,33,33,33,33,33,33,33,33,33,33,33,33,33,33,33,33,33,
33,33,33,33,33,33,33,33,33,33,33,33,33,33,33,33,33,33,33,33,33,33,33,33,33,33,33,33,33,33,
33,33,33,33,33,33,33,33,33,33,33,33,33,33,33,33,33,33,33,33,33,33,33,33,33,33,33,33,33,33,
33,33,33,33,33,33,33,33,33,33,33,33,33,33,33,33,33,33,33,33,33,33,33,33,33,33,33,33,33,33,
33,33,33,33,33,33,33,33,33,33,33,33,33,33,33,33,33,33,33,33,33,33,33,33,33,33,33,33,33,33,
33,33,33,33,33,33,33,33,33,33,33,33,33,33,33,33,33,33,33,33,33,33,33,33,33,33,33,33,33,33,
33,33,33,33,33,33,33,33,33,33,33,33,33,33,33,33,33,33,33,33,33,33,33,33,33,33,33,33,33,33,
33,33,33,33,33,33,33,33,33,33,33,33,33,33,33,33,33,33,33,33,33,33,33,33,33,33,33,33,33,33,
33,33,33,33,33,33,33,33,33,33,33,33,33,33,33,33,33,33,33,33,33,33,33,33,33,33,33,33,33,33,
33,33,33,33,33,33,33,33,33,33,33,33,33,33,33,33,33,33,33,33,33,33,33,33,33,33,33,33,33,33,
33,33,33,33,33,33,33,33,33,33,33,33,33,33,33,33,33,33,33,33,33,33,33,33,33,33,33,33,33,33,
33,33,33,33,33,33,33,33,33,33,33,33,33,33,33,33,33,33,33,33,33,33,33,33,33,33,33,33,33,33
</data>
 </layer>
 <layer id="1" name="foreground" width="30" height="20">
  <data encoding="csv">
0,0,0,0,0,0,0,0,0,0,0,0,0,0,0,0,0,0,0,0,0,0,0,0,0,0,0,0,0,0,
0,0,0,0,0,0,0,0,0,0,0,0,0,0,0,0,0,0,0,0,0,0,0,0,0,0,0,0,0,0,
0,0,0,0,0,0,0,12,18,18,18,18,18,18,18,18,18,18,18,18,18,18,17,0,0,0,0,0,0,0,
0,0,0,0,0,0,0,8,2,3,3,3,3,3,3,3,3,3,3,3,3,4,9,0,0,0,0,0,0,0,
0,0,0,0,0,0,0,8,5,7,7,25,21,21,21,21,21,21,27,7,7,6,9,0,0,0,0,0,0,0,
0,0,0,0,0,0,0,8,5,7,25,22,1,1,1,1,1,1,26,27,7,6,9,0,0,0,0,0,0,0,
0,0,0,0,0,0,0,8,5,25,22,1,1,1,1,1,1,1,1,26,27,6,9,0,0,0,0,0,0,0,
0,0,0,0,0,0,0,8,29,22,1,1,1,1,1,1,1,1,1,1,26,30,9,0,0,0,0,0,0,0,
0,0,0,0,0,0,0,8,31,1,1,1,1,1,1,1,1,1,1,1,1,32,9,0,0,0,0,0,0,0,
0,0,0,0,0,0,0,8,1,1,1,1,1,1,1,1,1,1,1,1,1,1,9,0,0,0,0,0,0,0,
0,0,0,0,0,0,0,8,1,1,1,1,1,1,1,1,1,1,1,1,1,1,9,0,0,0,0,0,0,0,
0,0,0,0,0,0,0,8,1,1,1,1,1,1,1,1,1,1,1,1,1,1,9,0,0,0,0,0,0,0,
0,0,0,0,0,0,0,8,1,1,11,1,1,1,1,1,1,1,1,1,1,20,13,0,0,0,0,0,0,0,
0,0,0,0,0,0,0,8,1,1,10,1,1,1,1,1,1,1,1,1,20,13,0,0,0,0,0,0,0,0,
0,0,0,0,0,0,0,8,1,1,10,1,1,1,1,1,1,1,1,20,13,0,0,0,0,0,0,0,0,0,
0,0,0,0,0,0,0,14,19,19,15,19,19,19,19,19,19,19,19,13,0,0,0,0,0,0,0,0,0,0,
0,0,0,0,0,0,0,0,0,0,0,0,0,0,0,0,0,0,0,0,0,0,0,0,0,0,0,0,0,0,
0,0,0,0,0,0,0,0,0,0,0,0,0,0,0,0,0,0,0,0,0,0,0,0,0,0,0,0,0,0,
0,0,0,0,0,0,0,0,0,0,0,0,0,0,0,0,0,0,0,0,0,0,0,0,0,0,0,0,0,0,
0,0,0,0,0,0,0,0,0,0,0,0,0,0,0,0,0,0,0,0,0,0,0,0,0,0,0,0,0,0
</data>
 </layer>
 <layer id="4" name="objects" width="30" height="20">
  <data encoding="csv">
0,0,0,0,0,0,0,0,0,0,0,0,0,0,0,0,0,0,0,0,0,0,0,0,0,0,0,0,0,0,
0,0,0,0,0,0,0,0,0,0,0,0,0,0,0,0,0,0,0,0,0,0,0,0,0,0,0,0,0,0,
0,0,0,0,0,0,0,0,0,0,0,0,0,0,0,0,0,0,0,0,0,0,0,0,0,0,0,0,0,0,
0,0,0,0,0,0,0,0,0,0,0,0,0,0,0,0,0,0,0,0,0,0,0,0,0,0,0,0,0,0,
0,0,0,0,0,0,0,0,0,0,0,0,0,0,0,0,0,0,0,0,0,0,0,0,0,0,0,0,0,0,
0,0,0,0,0,0,0,0,0,0,0,0,37,38,39,0,0,0,0,0,0,0,0,0,0,0,0,0,0,0,
0,0,0,0,0,0,0,0,0,0,0,0,0,0,0,0,0,0,0,0,0,0,0,0,0,0,0,0,0,0,
0,0,0,0,0,0,0,0,0,0,0,0,0,0,0,0,0,0,0,0,0,0,0,0,0,0,0,0,0,0,
0,0,0,0,0,0,0,0,0,0,0,0,0,0,0,0,0,0,0,0,0,0,0,0,0,0,0,0,0,0,
0,0,0,0,0,0,0,0,0,0,0,0,0,0,0,0,0,0,0,0,0,0,0,0,0,0,0,0,0,0,
0,0,0,0,0,0,0,0,0,0,0,0,0,0,0,0,0,0,0,0,0,0,0,0,0,0,0,0,0,0,
0,0,0,0,0,0,0,0,0,0,0,0,0,0,0,0,0,0,0,0,0,0,0,0,0,0,0,0,0,0,
0,0,0,0,0,0,0,0,34,34,0,0,0,0,0,0,0,0,0,0,0,0,0,0,0,0,0,0,0,0,
0,0,0,0,0,0,0,0,35,35,0,0,0,0,0,0,0,0,0,0,0,0,0,0,0,0,0,0,0,0,
0,0,0,0,0,0,0,0,36,36,0,0,0,0,0,0,0,0,0,0,0,0,0,0,0,0,0,0,0,0,
0,0,0,0,0,0,0,0,0,0,0,0,0,0,0,0,0,0,0,0,0,0,0,0,0,0,0,0,0,0,
0,0,0,0,0,0,0,0,0,0,0,0,0,0,0,0,0,0,0,0,0,0,0,0,0,0,0,0,0,0,
0,0,0,0,0,0,0,0,0,0,0,0,0,0,0,0,0,0,0,0,0,0,0,0,0,0,0,0,0,0,
0,0,0,0,0,0,0,0,0,0,0,0,0,0,0,0,0,0,0,0,0,0,0,0,0,0,0,0,0,0,
0,0,0,0,0,0,0,0,0,0,0,0,0,0,0,0,0,0,0,0,0,0,0,0,0,0,0,0,0,0
</data>
 </layer>
</map>
